dhis-2/dhis-support/dhis-support-system/src/main/resources/SVGs/woman_negative.svg

<svg width="48" height="48" viewBox="0 0 48 48" fill="none" xmlns="http://www.w3.org/2000/svg">
<path fill-rule="evenodd" clip-rule="evenodd" d="M0 0V47.9994H47.9994V0H0ZM24.0017 4.02725C26.4267 4.02725 28.3926 5.99282 28.3926 8.41789C28.3926 10.8429 26.4267 12.8088 24.0017 12.8088C21.5767 12.8088 19.6088 10.8429 19.6088 8.41789C19.6088 5.99282 21.5767 4.02725 24.0017 4.02725ZM24.4277 13.8888H28.4256V13.8998C29.1476 13.9098 29.8356 14.3078 30.1756 15.0038L35.0286 24.9467C35.5096 25.9317 35.1046 27.1107 34.1206 27.5917C33.1366 28.0716 31.9566 27.6677 31.4766 26.6837L28.4256 20.4317C28.4256 25.1527 28.9166 28.2826 31.2126 33.0756H28.4256V41.9955C28.4256 43.0905 27.5447 43.9744 26.4487 43.9744C25.3537 43.9744 24.4707 43.0905 24.4707 41.9955V33.0756H23.5177V41.9955C23.5177 43.0905 22.6357 43.9744 21.5407 43.9744C20.4457 43.9744 19.5658 43.0905 19.5658 41.9955V33.0756H16.7848C19.3508 28.1076 19.6408 24.6967 19.5658 20.4487L16.5228 26.6857C16.0428 27.6697 14.8648 28.0736 13.8808 27.5937C12.8968 27.1127 12.4878 25.9327 12.9688 24.9487L17.8238 15.0058C18.1618 14.3128 18.8478 13.9188 19.5658 13.9038V13.8928L23.5637 13.8908L24.4277 13.8888Z" fill="#333333"/>
</svg>

<?xml version="1.0" encoding="UTF-8" standalone="no"?>
<!-- Created with Inkscape (http://www.inkscape.org/) -->
<svg id="svg8" xmlns:rdf="http://www.w3.org/1999/02/22-rdf-syntax-ns#" xmlns="http://www.w3.org/2000/svg" xmlns:osb="http://www.openswatchbook.org/uri/2009/osb" height="48" width="48" version="1.1" xmlns:cc="http://creativecommons.org/ns#" viewBox="0 0 12.7 12.7" xmlns:dc="http://purl.org/dc/elements/1.1/">
 <title id="title4753">UIO-icon</title>
 <metadata id="metadata5">
  <rdf:RDF>
   <cc:Work rdf:about="">
    <dc:format>image/svg+xml</dc:format>
    <dc:type rdf:resource="http://purl.org/dc/dcmitype/StillImage"/>
    <dc:title>UIO-icon</dc:title>
    <dc:creator>
     <cc:Agent>
      <dc:title>Joaquín Urbano</dc:title>
     </cc:Agent>
    </dc:creator>
    <dc:rights>
     <cc:Agent>
      <dc:title>GPL</dc:title>
     </cc:Agent>
    </dc:rights>
   </cc:Work>
  </rdf:RDF>
 </metadata>
 <g id="layer1" transform="translate(0,-284.3)">
  <path id="rect4887" d="m0 0v48h48v-48h-48zm24.002 4.0273c2.425 0 4.391 1.9656 4.391 4.3907 0 2.425-1.966 4.391-4.391 4.391s-4.393-1.966-4.393-4.391c0-2.4251 1.968-4.3907 4.393-4.3907zm0.426 9.8617h3.998v0.011c0.722 0.01 1.41 0.408 1.75 1.104l4.853 9.943c0.481 0.985 0.076 2.164-0.908 2.645-0.984 0.48-2.164 0.076-2.644-0.908l-3.051-6.252c0 4.721 0.491 7.851 2.787 12.644h-2.787v8.92c0 1.095-0.881 1.979-1.977 1.979-1.095 0-1.978-0.884-1.978-1.979v-8.92h-0.953v8.92c0 1.095-0.882 1.979-1.977 1.979s-1.975-0.884-1.975-1.979v-8.92h-2.781c2.566-4.968 2.856-8.379 2.781-12.627l-3.043 6.237c-0.48 0.984-1.658 1.388-2.642 0.908-0.984-0.481-1.393-1.661-0.912-2.645l4.855-9.943c0.338-0.693 1.024-1.087 1.742-1.102v-0.011l3.998-0.002 0.864-0.002z" fill-rule="evenodd" transform="matrix(.26458 0 0 .26458 0 284.3)" fill="#333"/>
 </g>
</svg>
